places/scalable/folder-orange-music.svg

<svg xmlns="http://www.w3.org/2000/svg" style="isolation:isolate" width="256" height="256"><path d="M53.039 21C16.724 21 13 23.055 13 59.371v52.167h230V79.563c0-36.316-3.724-42.102-40.039-42.102h-89.336L97.198 21H53.039z" fill="#f34f17"/><path d="M53.039 70.384C16.722 70.384 13 74.114 13 110.429v84.524C13 231.269 16.722 235 53.039 235h149.922c36.317 0 40.039-3.731 40.039-40.047V93.969c0-36.316-3.722-40.047-40.039-40.047H119.53l-16.438 16.462H53.039z" fill="#fb7c38"/><linearGradient id="a" y1=".5" x2="0" y2="-.5" gradientTransform="matrix(230 0 0 181.078 13 53.922)" gradientUnits="userSpaceOnUse"><stop offset="0%" stop-opacity=".07" stop-color="#fff"/><stop offset="67.282%" stop-opacity="0" stop-color="#fcefe8"/></linearGradient><path d="M53.039 70.384C16.722 70.384 13 74.114 13 110.429v84.524C13 231.269 16.722 235 53.039 235h149.922c36.317 0 40.039-3.731 40.039-40.047V93.969c0-36.316-3.722-40.047-40.039-40.047H119.53l-16.438 16.462H53.039z" fill="url(#a)"/><g opacity=".4"><radialGradient id="b" fx=".5" fy=".136" cx=".5" cy=".5" r=".272" gradientTransform="matrix(230 0 0 60.62 13 21)" gradientUnits="userSpaceOnUse"><stop offset="0%" stop-color="#fff"/><stop offset="100%" stop-opacity=".204" stop-color="#fff"/></radialGradient><path d="M53.039 21C16.724 21 13 23.055 13 59.371v2.059c0-36.316 3.724-38.373 40.039-38.373h44.159l16.427 16.461h89.336c36.315 0 40.039 5.786 40.039 42.102v-2.057c0-36.316-3.724-42.102-40.039-42.102h-89.336L97.198 21H53.039z" fill="url(#b)"/></g><g opacity=".4"><radialGradient id="c" fx=".482" fy=".211" cx=".5" cy=".5" r=".272" gradientTransform="matrix(230 0 0 58.565 13 53.922)" gradientUnits="userSpaceOnUse"><stop offset="0%" stop-color="#fff"/><stop offset="100%" stop-opacity=".204" stop-color="#fff"/></radialGradient><path d="M119.53 53.922l-16.438 16.462H53.039C16.724 70.384 13 74.112 13 110.427v2.06c0-36.316 3.724-40.046 40.039-40.046h50.053l16.438-16.46h83.431c36.315 0 40.039 3.727 40.039 40.043v-2.057c0-36.316-3.724-40.045-40.039-40.045H119.53z" fill="url(#c)"/></g><path d="M243 167.096l-65.715 65.845h25.676c36.315 0 40.039-3.727 40.039-40.043v-25.802z" fill="#FFF" opacity=".1"/><path d="M13 192.898v2.057C13 231.271 16.724 235 53.039 235h149.922c36.315 0 40.039-3.729 40.039-40.045v-2.057c0 36.316-3.724 40.043-40.039 40.043H53.039c-36.315 0-40.039-3.727-40.039-40.043z" opacity=".2"/><g opacity=".62"><path d="M171.104 92.003c-1.449-.014-3.377.205-5.942.575l-46.31 6.592c-10.302 2.107-10.302 2.76-10.302 11.121V188.688c-.76-.51-1.509-1.024-2.293-1.529v.003c-3.273-2.107-6.761-3.607-11.447-3.607-5.869 0-9.37 2.159-11.489 5.003-2.118 2.843-2.821 6.427-2.821 9.198 0 3.341 1.188 6.906 3.764 9.623C86.84 210.096 90.801 212 96.495 212c6.43 0 10.954-1.726 13.511-5.094 2.013-2.652 3.125-6.195 3.523-10.566V196.326c.055-.53.095-1.074.13-1.635.054-.864.043-2.48.043-2.48v-61.837c0-7.42-.001-7.863 10.304-9.556l36.019-4.898c10.162-1.278 10.32-.391 10.322 4.944v57.929c-.759-.511-1.508-1.024-2.293-1.529v.002c-3.273-2.107-6.761-3.606-11.446-3.606-5.87 0-9.371 2.159-11.49 5.002-2.118 2.844-2.821 6.428-2.821 9.198 0 3.341 1.188 6.907 3.765 9.624 2.575 2.717 6.536 4.62 12.23 4.621 6.43 0 10.954-1.726 13.511-5.095 2.013-2.652 3.126-6.194 3.523-10.565V186.431c.055-.53.095-1.074.131-1.635.054-.864.042-2.481.042-2.481V100.71c0-6.508-.044-8.663-4.393-8.71l-.002.003z" fill="#FFF"/></g></svg>

<?xml version="1.0" standalone="no"?><!-- Generator: Gravit.io -->
<svg xmlns="http://www.w3.org/2000/svg" 
  xmlns:xlink="http://www.w3.org/1999/xlink" style="isolation:isolate" viewBox="0 0 256 256" width="256" height="256">
  <switch>
    <g>
      <g id="folder">
        <path d=" M 53.039 21 C 16.724 21 13 23.055 13 59.371 L 13 111.538 L 243 111.538 L 243 79.563 C 243 43.247 239.276 37.461 202.961 37.461 L 113.625 37.461 L 97.198 21 L 53.039 21 Z " id="orange" fill="#f34f17"/>
        <path d=" M 53.039 70.384 C 16.722 70.384 13 74.114 13 110.429 L 13 194.953 C 13 231.269 16.722 235 53.039 235 L 202.961 235 C 239.278 235 243 231.269 243 194.953 L 243 93.969 C 243 57.653 239.278 53.922 202.961 53.922 L 119.53 53.922 L 103.092 70.384 L 53.039 70.384 Z " id="change-color-easy" fill="#fb7c38"/>
        <linearGradient id="_lgradient_25" x1="0" y1="0.5" x2="2.83276944882399e-16" y2="-0.5" gradientTransform="matrix(230,0,0,181.078,13,53.922)" gradientUnits="userSpaceOnUse">
          <stop offset="0%" stop-opacity="0.07" style="stop-color:rgb(255,255,255)"/>
          <stop offset="67.28219512106674%" stop-opacity="0" style="stop-color:rgb(252,239,232)"/>
        </linearGradient>
        <path d=" M 53.039 70.384 C 16.722 70.384 13 74.114 13 110.429 L 13 194.953 C 13 231.269 16.722 235 53.039 235 L 202.961 235 C 239.278 235 243 231.269 243 194.953 L 243 93.969 C 243 57.653 239.278 53.922 202.961 53.922 L 119.53 53.922 L 103.092 70.384 L 53.039 70.384 Z " id="gradient white" fill="url(#_lgradient_25)"/>
        <g opacity="0.4">
          <radialGradient id="_rgradient_49" fx="0.5000000213726793" fy="0.13577386516315215" cx="0.5" cy="0.5" r="0.27154159375000003" gradientTransform="matrix(230,0,0,60.62,13,21)" gradientUnits="userSpaceOnUse">
            <stop offset="0%" stop-opacity="1" style="stop-color:rgb(255,255,255)"/>
            <stop offset="100%" stop-opacity="0.20392157" style="stop-color:rgb(255,255,255)"/>
          </radialGradient>
          <path d=" M 53.039 21 C 16.724 21 13 23.055 13 59.371 L 13 61.43 C 13 25.114 16.724 23.057 53.039 23.057 L 97.198 23.057 L 113.625 39.518 L 202.961 39.518 C 239.276 39.518 243 45.304 243 81.62 L 243 79.563 C 243 43.247 239.276 37.461 202.961 37.461 L 113.625 37.461 L 97.198 21 L 53.039 21 Z " id="white" fill="url(#_rgradient_49)"/>
        </g>
        <g opacity="0.4">
          <radialGradient id="_rgradient_50" fx="0.48214287810452355" fy="0.2108154047287485" cx="0.5" cy="0.5" r="0.27154159375" gradientTransform="matrix(230,0,0,58.565,13,53.922)" gradientUnits="userSpaceOnUse">
            <stop offset="0%" stop-opacity="1" style="stop-color:rgb(255,255,255)"/>
            <stop offset="100%" stop-opacity="0.20392157" style="stop-color:rgb(255,255,255)"/>
          </radialGradient>
          <path d=" M 119.53 53.922 L 103.092 70.384 L 53.039 70.384 C 16.724 70.384 13 74.112 13 110.427 L 13 112.487 C 13 76.171 16.724 72.441 53.039 72.441 L 103.092 72.441 L 119.53 55.981 L 202.961 55.981 C 239.276 55.981 243 59.708 243 96.024 L 243 93.967 C 243 57.651 239.276 53.922 202.961 53.922 L 119.53 53.922 Z " id="white" fill="url(#_rgradient_50)"/>
        </g>
        <g opacity="0.1">
          <path d=" M 243 167.096 L 177.285 232.941 L 202.961 232.941 C 239.276 232.941 243 229.214 243 192.898 L 243 167.096 Z " id="white" fill="rgb(255,255,255)"/>
        </g>
        <g opacity="0.2">
          <path d=" M 13 192.898 L 13 194.955 C 13 231.271 16.724 235 53.039 235 L 202.961 235 C 239.276 235 243 231.271 243 194.955 L 243 192.898 C 243 229.214 239.276 232.941 202.961 232.941 L 53.039 232.941 C 16.724 232.941 13 229.214 13 192.898 Z " id="dark" fill="rgb(0,0,0)"/>
        </g>
      </g>
      <g opacity="0.62">
        <path d=" M 171.104 92.003 C 169.655 91.989 167.727 92.208 165.162 92.578 L 118.852 99.17 C 108.55 101.277 108.55 101.93 108.55 110.291 L 108.55 110.588 L 108.55 110.588 L 108.55 188.688 C 107.79 188.178 107.041 187.664 106.257 187.159 L 106.257 187.162 C 102.984 185.055 99.496 183.555 94.81 183.555 C 88.941 183.555 85.44 185.714 83.321 188.558 C 81.203 191.401 80.5 194.985 80.5 197.756 C 80.5 201.097 81.688 204.662 84.264 207.379 C 86.84 210.096 90.801 212 96.495 212 C 102.925 212 107.449 210.274 110.006 206.906 C 112.019 204.254 113.131 200.711 113.529 196.34 L 113.529 196.331 L 113.529 196.326 C 113.584 195.796 113.624 195.252 113.659 194.691 C 113.713 193.827 113.702 192.211 113.702 192.211 L 113.702 130.374 C 113.702 122.954 113.701 122.511 124.006 120.818 L 160.025 115.92 C 170.187 114.642 170.345 115.529 170.347 120.864 L 170.347 178.793 C 169.588 178.282 168.839 177.769 168.054 177.264 L 168.054 177.266 C 164.781 175.159 161.293 173.66 156.608 173.66 C 150.738 173.66 147.237 175.819 145.118 178.662 C 143 181.506 142.297 185.09 142.297 187.86 C 142.297 191.201 143.485 194.767 146.062 197.484 C 148.637 200.201 152.598 202.104 158.292 202.105 C 164.722 202.105 169.246 200.379 171.803 197.01 C 173.816 194.358 174.929 190.816 175.326 186.445 L 175.326 186.436 L 175.326 186.431 C 175.381 185.901 175.421 185.357 175.457 184.796 C 175.511 183.932 175.499 182.315 175.499 182.315 L 175.499 115.532 L 175.499 100.71 C 175.499 94.202 175.455 92.047 171.106 92 L 171.104 92.003 Z " id="music" fill="#FFFFFF"/>
      </g>
    </g>
  </switch>
</svg>
